src/assets/img/git.svg

<svg width="76" height="76" viewBox="0 0 76 76" fill="none" xmlns="http://www.w3.org/2000/svg">
<path d="M74.1028 34.6966L41.3089 1.90701C39.4326 0.030995 36.3327 0.030995 34.4564 1.90701L27.6855 8.677L36.3327 17.323C38.3721 16.6705 40.6563 17.0783 42.2062 18.7096C43.8378 20.3409 44.2457 22.6248 43.593 24.6639L51.9139 32.9837C53.9533 32.3312 56.2375 32.739 57.869 34.3703C60.1532 36.5726 60.1532 40.2431 57.869 42.5269C55.5849 44.8108 51.9955 44.8108 49.7113 42.5269C47.9982 40.814 47.5903 38.367 48.4877 36.2463L40.7378 28.4976V48.8891C41.3089 49.1338 41.7984 49.5416 42.2878 49.9494C44.572 52.1517 44.572 55.8222 42.2878 58.106C40.0037 60.3083 36.4143 60.3083 34.1301 58.106C31.846 55.8222 31.846 52.2333 34.1301 49.9494C34.7012 49.3785 35.3538 48.9706 36.0064 48.7259V28.0897C35.3538 27.845 34.7012 27.3556 34.1301 26.8662C32.417 25.1533 32.0091 22.7064 32.9065 20.5856L24.3409 12.1028L1.9072 34.5334C0.0309323 36.4095 0.0309323 39.509 1.9072 41.385L34.6196 74.093C36.4958 75.969 39.5958 75.969 41.472 74.093L74.0213 41.5481C75.9791 39.5905 75.9791 36.5726 74.1028 34.6966Z" fill="#e44c30"/>
</svg>

<svg width="76" height="76" fill="none" xmlns="http://www.w3.org/2000/svg"><path d="M74.103 34.697 41.309 1.907c-1.876-1.876-4.976-1.876-6.853 0l-6.77 6.77 8.647 8.646c2.04-.652 4.323-.245 5.873 1.387 1.632 1.63 2.04 3.915 1.387 5.954l8.32 8.32c2.04-.653 4.325-.245 5.956 1.386 2.284 2.203 2.284 5.873 0 8.157s-5.873 2.284-8.158 0c-1.713-1.713-2.12-4.16-1.223-6.28l-7.75-7.75V48.89c.57.245 1.06.653 1.55 1.06 2.284 2.203 2.284 5.873 0 8.157a5.862 5.862 0 0 1-8.158 0c-2.284-2.284-2.284-5.873 0-8.157a5.316 5.316 0 0 1 1.876-1.223V28.09c-.652-.245-1.305-.734-1.876-1.224-1.713-1.713-2.12-4.16-1.224-6.28l-8.565-8.483-22.434 22.43c-1.876 1.877-1.876 4.976 0 6.852L34.62 74.093c1.876 1.876 4.976 1.876 6.852 0l32.55-32.545c1.957-1.958 1.957-4.975.08-6.851Z" fill="#e44c30"/></svg>
